X:1
T:Day of Days
T:Day of Days
T:F. H. Hodges
C:F. H. Hodges
%%score [ 1 2 3 4 ]
L:1/8
Q:1/4=120
M:4/4
K:E
V:1 treble nm="Soprano" snm="S"
V:2 treble nm="Alto" snm="A"
V:3 treble-8 nm="Tenor" snm="T"
V:4 bass nm="Bass" snm="B"
V:1
"^Words by Miss M. Williams""^1""^Moderato"!mf! B3 B ^A2 B2 | c2 B2 G2 E2 | E3 F G2 B2 | A2 c2 F4 | %4
w: 1.Day of days we|glad- ly greet thee,|Queen of all the|fes- tal year,|
"^5" B3 B ^A2 B2 | c2 E2 D2 F2 | G2 B2 F2!<(! B2 | G2!<)!!>(! c2 B4!>)! |!<(! A3 B!<)! c2 e2 | %9
w: With un- bur- den'd|hearts me meet thee,|In the Eas- ter|sun- shine clear.|Storms are o- ver,|
!>(! =d2 c2!>)! (B2 F2) | G3 A B2 c2 | F2 F2 G4 | z4!f! e3 B |"^14" c2 A2 z2!p! A>A x3/2 | %14
w: clouds are fled, *|Christ is ris- en|from the dead.|Al- le-|lu- ia! Al- le-|
 (B2 G2) F4 |!ff!!<(! A2 c2 (e2 d2)!<)! | !fermata!e4 z4 |] %17
w: lu- * ia!|Al- le- lu- *|ia!|
V:2
!mf! E3 E E2 E2 | C2 D2 E2 B,2 | C3 D E2 E2 | E2 E2 D4 | E3 E E2 F2 | E2 C2 B,2 D2 | %6
w: 2.Win- ter's cold and|snow are en- ded,|At the com- ing|of the spring;|Who, by breeze and|bird at- tend- ed|
 E2 ^^C2 D2!<(! D2 | E2!<)!!>(! E2 D4!>)! |!<(! E3 G!<)! A2 A2 |!>(! (AE) E2!>)! (F2 D2) | %10
w: Calls for earth's a-|wak- en- ing.|Rise ye flowers from|win- * ter's bed, *|
 E3 E E2 E2 | E2 D2 E4 | z4!f! E3 E | E2 F2 z2!p! F>F x3/2 | (F2 E2) D4 | %15
w: Christ is ris- en|from the dead.|Al- le-|lu- ia! Al- le-|lu- * ia!|
!ff!!<(! E2 E2 (E2 F2)!<)! | !fermata!G4 z4 |] %17
w: Al- le- lu- *|ia!|
V:3
!mf! G3 G ^^F2 G2 | A2 F2 B2 G2 | A3 A B2 =d2 | c2 A2 B4 | G3 G =G2 F2 | ^G2 ^A2 B2 B2 | %6
w: 3.Ban- ished be our|Lent- en sor- row,|Sooth'd our bit- ter|Lent- en pain;|Night hath found its|glad to- mor- row,|
 B2 G2 d2!<(! B2 | B2!<)!!>(! ^A2 B4!>)! |!<(! e3 =d!<)! c2 A2 |!>(! (AB) A2!>)! (A2 B2) | %10
w: Joy hath smiled on|us a- gain:|All our Lent- en|tears * are shed, *|
 B3 A G2 G2 | c2 B2 B4 | z4!f! B3 B | A2 c2 z2!p! c>=c x3/2 | B4 B4 |!ff!!<(! A2 (AG) (F2 B2)!<)! | %16
w: Christ is ris- en|from the dead.|Al- le-|lu- ia! Al- le-|lu- ia!|Al- le- * lu- *|
 !fermata!B4 z4 |] %17
w: ia!|
V:4
!mf! E,3 E, E,2 E,2 | E,2 E,2 E,2 E,2 | A,3 F, E,2 E,2 | E,2 E,2 B,,4 | E,3 E, E,2 D,2 | %5
w: 4.Sing, ye free un-|fet- tered wa- ters,|Car- ol, all ye|choir- ing birds;|For the church her|
 C,2 F,2 B,,2 B,,2 | E,2 ^E,2 F,2!<(! F,2 | F,2!<)!!>(! F,,2!>)! B,,4 |!<(! C,3 B,,!<)! A,,2 C,2 | %9
w: sons and daugh- ters|Bids re- peat the|joy- ful words|Once by an A-|
!>(! (F,G,) A,2!>)! (^D,2 B,,2) | E,3 F, G,2 C,2 | A,,2 B,,2 E,4 |!f! (!>!E,,4 G,3) G, | %13
w: pos- * tle said, *|Christ is ris- en|from the dead.|Al- * le-|
 A,2 F,2 z2!p! F,3/2 E,2 | (D,2 E,2) B,,4 |!ff!!<(! C,2 A,,2 B,,4!<)! | !fermata!E,,4 z4 |] %17
w: lu- ia! Al- le-|lu- * ia!|Al- le- lu-|ia!|

